src/topics/icons/impala.svg

<?xml version="1.0" encoding="UTF-8" standalone="no"?>
<svg width="256px" height="613px" viewBox="0 0 256 613" version="1.1" xmlns="http://www.w3.org/2000/svg" xmlns:xlink="http://www.w3.org/1999/xlink" preserveAspectRatio="xMidYMid">
    <g>
        <path d="M193.439278,15.5775565 C196.900278,19.7535565 199.955278,23.8395565 203.194278,28.1805565 C245.365278,84.7025565 258.038278,152.403557 245.767278,221.345557 C244.987278,225.729557 242.677278,225.918557 239.403278,229.077557 C219.153278,248.616557 199.660278,268.866557 187.555278,294.582557 C182.468278,305.391557 179.884278,317.529557 177.409278,329.324557 C176.669278,332.852557 179.184278,339.479557 181.952278,340.686557 C185.060278,342.041557 191.586278,340.192557 194.123278,337.435557 C207.028278,323.412557 219.455278,308.910557 231.386278,294.043557 C239.527278,283.899557 246.579278,272.881557 254.885278,262.631557 C257.132278,285.061557 256.743278,307.106557 246.466278,327.208557 C242.141278,340.010557 236.569278,341.525557 229.615278,349.239557 C221.704278,355.172557 212.588278,364.197557 206.986278,371.731557 C198.233278,385.760557 198.699278,397.095557 211.816278,406.923557 C212.640278,407.427557 216.962278,409.498557 218.362278,409.809557 C215.395278,411.795557 212.784278,412.442557 205.985278,414.420557 C205.743278,424.612557 197.249278,431.407557 194.764278,436.171557 C193.590278,440.738557 193.152278,441.428557 192.780278,446.520557 C189.574278,490.328557 183.104278,537.736557 166.808278,578.967557 C161.299278,592.905557 154.659278,601.634557 140.863278,607.412557 C139.212278,608.104557 131.483278,612.114557 130.489278,612.326557 C133.885278,606.932557 134.528278,598.967557 130.028278,592.853557 C126.799278,588.466557 113.910278,588.711557 109.741278,584.698557 C110.535278,584.516557 116.066278,584.934557 116.853278,584.960557 C123.425278,585.186557 129.643278,584.853557 131.571278,576.761557 C133.117278,570.269557 129.660278,563.786557 123.121278,559.237557 C118.677278,556.144557 115.612278,555.266557 111.816278,551.392557 C110.898278,550.455557 109.512278,545.301557 110.473278,541.902557 C110.604278,541.438557 111.160278,541.264557 111.519278,541.586557 C115.805278,545.429557 121.397278,549.500557 124.977278,553.780557 C127.274278,555.882557 130.172278,558.294557 132.173278,558.269557 C134.287278,558.243557 135.504278,555.673557 137.976278,553.928557 C143.667278,548.863557 145.685278,546.396557 149.269278,539.474557 C149.890278,535.667557 148.539278,529.206557 147.349278,524.516557 C142.367278,504.897557 140.792278,484.487557 145.912278,464.802557 C149.581278,450.694557 154.831278,436.287557 162.667278,424.136557 C175.199278,404.703557 175.778278,386.923557 162.648278,368.313557 C140.206278,336.504557 142.788278,304.357557 160.972278,271.757557 C173.930278,248.524557 190.602278,228.303557 209.061278,209.306557 C212.882278,205.374557 215.375278,204.973557 216.430278,199.590557 C229.945278,137.291557 221.631278,74.1095565 191.873278,18.7085565 C190.555278,16.3195565 179.433278,0.875556525 179.265278,0.00255652524 C179.615278,-0.232443475 193.089278,15.8125565 193.439278,15.5775565 Z M71.7411778,352.469657 C71.0201778,343.357657 70.9311778,334.760657 69.5731778,326.367657 C64.1521778,292.869657 46.3951778,265.913657 23.7251778,241.685657 C21.9241778,239.760657 20.2631778,237.579657 18.1281778,236.114657 C6.8041778,228.343657 3.3511778,216.916657 1.8841778,204.014657 C-6.2908222,132.113657 11.9801778,68.3396565 59.7481778,13.4826565 C60.0661778,13.1166565 69.5241778,0.776656525 71.0661778,0.167656525 C57.6711778,23.5126565 41.7291778,46.3146565 34.1691778,85.3356565 C26.8501778,123.114657 26.7721778,160.582657 34.6751778,198.097657 C35.4821778,201.927657 38.2901778,205.736657 41.0891778,208.682657 C60.9301778,229.569657 79.6111778,251.465657 90.9951778,278.143657 C96.4541778,290.933657 100.137178,304.987657 101.719178,318.801657 C103.865178,337.542657 92.2391778,349.611657 71.7411778,352.469657 Z M51.5708778,411.438057 C69.6768778,399.391057 83.1038778,403.135057 90.6808778,419.551057 C98.7418778,437.013057 103.865878,462.195057 104.748878,481.439057 C100.188878,470.285057 93.8558778,452.612057 89.4098778,441.413057 C87.3198778,436.148057 84.5598778,432.323057 78.0858778,432.441057 C72.0338778,432.551057 68.0448778,429.007057 66.7348778,423.340057 C66.1328778,420.736057 65.4118778,416.836057 63.8318778,415.073057 C61.1988778,412.135057 56.8468778,412.077057 51.5708778,411.438057 Z M45.2556778,354.178257 C21.6246778,338.361257 4.5296778,318.096257 1.2926778,287.892257 C14.2986778,293.472257 37.8846778,328.559257 45.2556778,354.178257 Z" fill="#2C6791"></path>
    </g>
</svg>

<svg height="613" preserveAspectRatio="xMidYMid" viewBox="0 0 256 613" width="256" xmlns="http://www.w3.org/2000/svg"><path d="m193.439278 15.5775565c3.461 4.176 6.516 8.262 9.755 12.603 42.171 56.522 54.844 124.2230005 42.573 193.1650005-.78 4.384-3.09 4.573-6.364 7.732-20.25 19.539-39.743 39.789-51.848 65.505-5.087 10.809-7.671 22.947-10.146 34.742-.74 3.528 1.775 10.155 4.543 11.362 3.108 1.355 9.634-.494 12.171-3.251 12.905-14.023 25.332-28.525 37.263-43.392 8.141-10.144 15.193-21.162 23.499-31.412 2.247 22.43 1.858 44.475-8.419 64.577-4.325 12.802-9.897 14.317-16.851 22.031-7.911 5.933-17.027 14.958-22.629 22.492-8.753 14.029-8.287 25.364 4.83 35.192.824.504 5.146 2.575 6.546 2.886-2.967 1.986-5.578 2.633-12.377 4.611-.242 10.192-8.736 16.987-11.221 21.751-1.174 4.567-1.612 5.257-1.984 10.349-3.206 43.808-9.676 91.216-25.972 132.447-5.509 13.938-12.149 22.667-25.945 28.445-1.651.692-9.38 4.702-10.374 4.914 3.396-5.394 4.039-13.359-.461-19.473-3.229-4.387-16.118-4.142-20.287-8.155.794-.182 6.325.236 7.112.262 6.572.226 12.79-.107 14.718-8.199 1.546-6.492-1.911-12.975-8.45-17.524-4.444-3.093-7.509-3.971-11.305-7.845-.918-.937-2.304-6.091-1.343-9.49.131-.464.687-.638 1.046-.316 4.286 3.843 9.878 7.914 13.458 12.194 2.297 2.102 5.195 4.514 7.196 4.489 2.114-.026 3.331-2.596 5.803-4.341 5.691-5.065 7.709-7.532 11.293-14.454.621-3.807-.73-10.268-1.92-14.958-4.982-19.619-6.557-40.029-1.437-59.714 3.669-14.108 8.919-28.515 16.755-40.666 12.532-19.433 13.111-37.213-.019-55.823-22.442-31.809-19.86-63.956-1.676-96.556 12.958-23.233 29.63-43.454 48.089-62.451 3.821-3.932 6.314-4.333 7.369-9.716 13.515-62.299 5.201-125.4810005-24.557-180.8820005-1.318-2.389-12.44-17.83299997-12.608-18.70599997.35-.23500001 13.824 15.80999997 14.174 15.57499997zm-121.6981002 336.8921005c-.721-9.112-.81-17.709-2.168-26.102-5.421-33.498-23.178-60.454-45.848-84.682-1.801-1.925-3.462-4.106-5.597-5.571-11.324-7.771-14.777-19.198-16.244-32.1-8.175-71.901 10.096-135.6750005 57.864-190.5320005.318-.366 9.776-12.70599997 11.318-13.31499997-13.395 23.34499997-29.337 46.14699997-36.897 85.16799997-7.319 37.7790005-7.397 75.2470005.506 112.7620005.807 3.83 3.615 7.639 6.414 10.585 19.841 20.887 38.522 42.783 49.906 69.461 5.459 12.79 9.1420002 26.844 10.7240002 40.658 2.146 18.741-9.4800002 30.81-29.9780002 33.668zm-20.1703 58.9684c18.106-12.047 31.533-8.303 39.11 8.113 8.061 17.462 13.1850002 42.644 14.0680002 61.888-4.56-11.154-10.8930002-28.827-15.3390002-40.026-2.09-5.265-4.85-9.09-11.324-8.972-6.052.11-10.041-3.434-11.351-9.101-.602-2.604-1.323-6.504-2.903-8.267-2.633-2.938-6.985-2.996-12.261-3.635zm-6.3152-57.2598c-23.631-15.817-40.726-36.082-43.963-66.286 13.006 5.58 36.592 40.667 43.963 66.286z" fill="#2c6791"/></svg>
